X:1
T:The Queen of Elfan's Nourice
M:4/4
L:1/8
K:C
D-E| F3/2 F/2 D2 D2 C3/2- D/2| F/2 F3/2 D2 D2 C3/2 D/2| F2 F2 FG A2|\
 C6 F3/2- E/2| D3- C D2 EF| F2 D2 D2 d3/2 d/2| cc A2- GA-c E| D6||\
